svg/device/airplay_line.svg

<?xml version="1.0" encoding="UTF-8"?>
<svg width="24px" height="24px" viewBox="0 0 24 24" version="1.1" xmlns="http://www.w3.org/2000/svg" xmlns:xlink="http://www.w3.org/1999/xlink">
    <title>airplay_line</title>
    <g id="页面-1" stroke="none" stroke-width="1" fill="none" fill-rule="evenodd">
        <g id="Device" fill-rule="nonzero">
            <g id="airplay_line">
                 <path d="M24,0 L24,24 L0,24 L0,0 L24,0 Z M12.5934901,23.257841 L12.5819402,23.2595131 L12.5108777,23.2950439 L12.4918791,23.2987469 L12.4918791,23.2987469 L12.4767152,23.2950439 L12.4056548,23.2595131 C12.3958229,23.2563662 12.3870493,23.2590235 12.3821421,23.2649074 L12.3780323,23.275831 L12.360941,23.7031097 L12.3658947,23.7234994 L12.3769048,23.7357139 L12.4804777,23.8096931 L12.4953491,23.8136134 L12.4953491,23.8136134 L12.5071152,23.8096931 L12.6106902,23.7357139 L12.6232938,23.7196733 L12.6232938,23.7196733 L12.6266527,23.7031097 L12.609561,23.275831 C12.6075724,23.2657013 12.6010112,23.2592993 12.5934901,23.257841 L12.5934901,23.257841 Z M12.8583906,23.1452862 L12.8445485,23.1473072 L12.6598443,23.2396597 L12.6498822,23.2499052 L12.6498822,23.2499052 L12.6471943,23.2611114 L12.6650943,23.6906389 L12.6699349,23.7034178 L12.6699349,23.7034178 L12.678386,23.7104931 L12.8793402,23.8032389 C12.8914285,23.8068999 12.9022333,23.8029875 12.9078286,23.7952264 L12.9118235,23.7811639 L12.8776777,23.1665331 C12.8752882,23.1545897 12.8674102,23.1470016 12.8583906,23.1452862 L12.8583906,23.1452862 Z M12.1430473,23.1473072 C12.1332178,23.1423925 12.1221763,23.1452606 12.1156365,23.1525954 L12.1099173,23.1665331 L12.0757714,23.7811639 C12.0751323,23.7926639 12.0828099,23.8018602 12.0926481,23.8045676 L12.108256,23.8032389 L12.3092106,23.7104931 L12.3186497,23.7024347 L12.3186497,23.7024347 L12.3225043,23.6906389 L12.340401,23.2611114 L12.337245,23.2485176 L12.337245,23.2485176 L12.3277531,23.2396597 L12.1430473,23.1473072 Z" id="MingCute" fill-rule="nonzero"></path>
                <path d="M11.1784,15.9565 C11.5561188,15.4283125 12.3158102,15.3953008 12.7411931,15.8574648 L12.8216,15.9565 L15.8022,20.1255 C16.2583773,20.7636136 15.8436707,21.6389926 15.0904485,21.717254 L14.9806,21.7229 L9.01947,21.7229 C8.23508182,21.7229 7.76411343,20.8764351 8.13855049,20.218149 L8.19785,20.1255 L11.1784,15.9565 Z M12,18.2462 L10.9443,19.7229 L13.0558,19.7229 L12,18.2462 Z M20,4 C21.0543909,4 21.9181678,4.81587733 21.9945144,5.85073759 L22,6 L22,17 C22,18.0543909 21.18415,18.9181678 20.1492661,18.9945144 L20,19 L16,19 L16,17 L20,17 L20,6 L4,6 L4,17 L8,17 L8,19 L4,19 C2.94563773,19 2.08183483,18.18415 2.00548573,17.1492661 L2,17 L2,6 C2,4.94563773 2.81587733,4.08183483 3.85073759,4.00548573 L4,4 L20,4 Z" id="形状" fill="#09244B"></path>
            </g>
        </g>
    </g>
</svg>

<svg xmlns="http://www.w3.org/2000/svg" width="24" height="24"><g fill="none" fill-rule="nonzero"><path d="M24 0v24H0V0h24ZM12.593 23.258l-.011.002-.071.035-.02.004-.014-.004-.071-.035c-.01-.004-.019-.001-.024.005l-.004.01-.017.428.005.02.01.013.104.074.015.004.012-.004.104-.074.012-.016.004-.017-.017-.427c-.002-.01-.009-.017-.017-.018Zm.265-.113-.013.002-.185.093-.01.01-.003.011.018.43.005.012.008.007.201.093c.012.004.023 0 .029-.008l.004-.014-.034-.614c-.003-.012-.01-.02-.02-.022Zm-.715.002a.023.023 0 0 0-.027.006l-.006.014-.034.614c0 .012.007.02.017.024l.015-.002.201-.093.01-.008.004-.011.017-.43-.003-.012-.01-.01-.184-.092Z"/><path fill="#09244B" d="M11.178 15.957a1.01 1.01 0 0 1 1.563-.1l.08.1 2.981 4.168a1.01 1.01 0 0 1-.712 1.592l-.11.006H9.02a1.01 1.01 0 0 1-.881-1.505l.059-.093 2.98-4.168Zm.822 2.29-1.056 1.476h2.112L12 18.246ZM20 4a2 2 0 0 1 1.995 1.85L22 6v11a2 2 0 0 1-1.85 1.995L20 19h-4v-2h4V6H4v11h4v2H4a2 2 0 0 1-1.995-1.85L2 17V6a2 2 0 0 1 1.85-1.995L4 4h16Z"/></g></svg>
